X: 29
T: Margaret's Waltz
I: Margaret's Waltz	W-18	A	waltz
C: W-18
C: Pat Shaw \2511959
M: 3/4
Z: Transcribed to abc by Mary Lou Knack
R: waltz
K: A
c2| "A"E3F AB| c4 c2| "D"BA F2 A2| "E7"B4 c2|     "A"E3F AB| c3d e2| "E7"c4 B2| "A"A4:|
cd| "C#m"e3f ge| "F#m"a4 a2| "D"fe d2 f2| "E7"e3d cB|    "A"A3B cd| "F#m"e4 e2| "D"cB A2 c2| "E7"B4 cd|
    "C#m"e3f ge| "F#m"a3g f2| "Bm"e2 d2 c2| "E7"B4 c2|     "A"E3F AB| c3d e2| "E7"c3A B2| "A"A4|]
%%text 9/1/98 For use only by Roaring Jelly members

%%pageheight 11.0in
%%pagewidth 8.5in
%%topmargin .3cm
%%botmargin .3cm
%%newpage
%%topspace 0cm
%%musicspace 0cm
%%subtitlespace 0cm
L:1/8
%%titlefont Times-Roman 18
%%gchordfont Helvetica-Narrow-Bold 12.0
%%setfont-1 Times-Roman 12
%%scale .7
%%textfont Times-Roman 18
%%leftmargin 2.1cm
%%rightmargin 2.6cm

% ---------- page 14 ----------

